X:950
T:Chamber's Lilt  a reel
A:Wyresdale, Lancashire
B:E and J Winder, 1835-41
L:1/8
M:6/8
O:England
Z:Richard Robinson 
%%TUNEURL: http://www.leeds.ac.uk/music/Info/RRTuneBk/gettune/00001101.html
%%ID:00001101
K:D
G>AG A2c | (B/c/dB) cec | G>AG    A2c | (B/c/dB) c3 ::
fdf  ecA | fdf      ece | (f/g/af) e3 | \
G>AG A2c | (B/c/dB) cec | G>AG    A2c | (B/c/dB) c3 ::
